X:1
T:Title
%%score { 1 | 2 }
L:1/8
M:6/8
K:Bb
V:1 treble nm="Grand Piano"
V:2 bass 
V:1
 z3 z2[Q:1/4=90] [DF] | [DB]>[EB][FB] [GB][FA][EG] | [DF]3- [DF]2 [DF] | %3
 [DB]>[EB][FB] [=EB][EA][EB] | c3- c2 F |[M:7/8] d>dd B3 B/B/ | [Ge]>[Ge][Ge] [EG]3 [Ge] | %7
[M:3/4] d>c BA GA |[M:5/8] [DB]-[DB]- [DB]3 |] %9
V:2
 z3 z2 [B,,B,] | [B,,F,]>[C,F,][D,B,] [E,E][E,E][E,B,] | [B,,B,]3- [B,,B,]2 [B,,B,] | %3
 [B,,F,]>[C,F,][D,F,] [C,G,][C,^F,][C,G,] | [F,A,E]3- [F,A,E]2 [F,A,] | %5
[M:7/8][K:treble] [B,F]>[B,F][B,F] [B,D_A]3 [B,A]/[B,A]/ | [E,B,]>[E,B,][E,B,] [E,B,]3 [E,B,] | %7
[M:3/4] [F,B,F]>[F,A,E] [F,B,D][F,CE] [F,A,E][F,E] |[M:5/8] [B,,F,]-[B,,F,]- [B,,F,]3 |] %9

